X:6412
T:TAILTDL1- Fiddle Faddle [Tail Toddle]
O:england
S:Walsh's Caledonian Country Dances, I [c 1734]
Q:1/4=120
L:1/8
M:C|
K:D mixolydian
G/G/G BGc2GE|G/G/G BGA2FD|G/G/G BG cA BG|A/B/c B/c/dA2FD||\
c2GE Ec GE|c2GE DA FD|c2GE Ec GE|A/B/c/A/ B/c/d/B/A2FD||\
G/G/G BG cA BG|G/G/G BG AD FD|G/G/G BG cAA BG|\
A/B/c/A/ B/c/d/B/A2FD||\
c2Ec Ec GE|c2E/c/B/c/ DA FE/D/|c2Ec Ec GE|\
A/B/c/A/ B/c/d/B/A2FD|]


